icons/evolvere-blue-folders-flat-vivid-dark-fallback/mimetypes/64/svg.svg

<?xml version="1.0" encoding="UTF-8" standalone="no"?>
<!-- Created with Inkscape (http://www.inkscape.org/) -->

<svg
   xmlns:dc="http://purl.org/dc/elements/1.1/"
   xmlns:cc="http://creativecommons.org/ns#"
   xmlns:rdf="http://www.w3.org/1999/02/22-rdf-syntax-ns#"
   xmlns:svg="http://www.w3.org/2000/svg"
   xmlns="http://www.w3.org/2000/svg"
   xmlns:sodipodi="http://sodipodi.sourceforge.net/DTD/sodipodi-0.dtd"
   xmlns:inkscape="http://www.inkscape.org/namespaces/inkscape"
   version="1.1"
   width="64"
   height="64"
   id="svg13094"
   inkscape:version="0.48.4 r9939"
   sodipodi:docname="svg.svg">
  <sodipodi:namedview
     pagecolor="#ffffff"
     bordercolor="#666666"
     borderopacity="1"
     objecttolerance="10"
     gridtolerance="10"
     guidetolerance="10"
     inkscape:pageopacity="0"
     inkscape:pageshadow="2"
     inkscape:window-width="1920"
     inkscape:window-height="1022"
     id="namedview49"
     showgrid="true"
     inkscape:zoom="10.429825"
     inkscape:cx="32.642938"
     inkscape:cy="30.285769"
     inkscape:window-x="-5"
     inkscape:window-y="23"
     inkscape:window-maximized="1"
     inkscape:current-layer="svg13094">
    <inkscape:grid
       type="xygrid"
       id="grid3845" />
  </sodipodi:namedview>
  <defs
     id="defs11" />
  <metadata
     id="metadata13099">
    <rdf:RDF>
      <cc:Work
         rdf:about="">
        <dc:format>image/svg+xml</dc:format>
        <dc:type
           rdf:resource="http://purl.org/dc/dcmitype/StillImage" />
        <dc:title />
      </cc:Work>
    </rdf:RDF>
  </metadata>
  <path
     d="M 4,0 64,0 64,62 4,62 z"
     id="path3960"
     style="fill:#2370be;fill-opacity:1;fill-rule:nonzero" />
  <path
     style="fill:#002d5c;fill-rule:nonzero;fill-opacity:0.17719299"
     d="M 60 2 L 60 33 L 35.6875 62 L 64 62 L 64 37 L 64 6 L 60 2 z "
     id="path3900" />
  <path
     style="color:#000000;fill:#3290e9;fill-opacity:1;fill-rule:nonzero;stroke:none;stroke-width:1;marker:none;visibility:visible;display:inline;overflow:visible;enable-background:accumulate"
     id="path3849"
     d="M 0,2 60,2 60,33 34,64 0,64 z"
     inkscape:connector-curvature="0" />
  <path
     style="color:#000000;fill:#003863;fill-opacity:0.65350878;fill-rule:nonzero;stroke:none;stroke-width:1;marker:none;visibility:visible;display:inline;overflow:visible;enable-background:accumulate"
     d="M 18.6875 15.5625 L 18.65625 19.96875 C 18.65625 19.96875 18.860839 19.978505 19.28125 20 C 19.701661 20.021495 20.319187 20.071285 21.09375 20.25 C 21.868313 20.428715 22.804459 20.725671 23.78125 21.25 C 24.758041 21.77433 25.795601 22.531876 26.65625 23.5625 C 27.336062 24.357356 27.912584 25.337578 28.3125 26.46875 C 28.712417 27.599922 28.910953 28.861488 28.84375 30.15625 C 28.786224 31.278369 28.513333 32.451386 28 33.53125 C 27.486667 34.611114 26.757731 35.615066 25.8125 36.375 C 24.350467 37.58214 22.28637 38.25165 20.3125 38.125 C 18.369383 38.001205 16.435189 37.016635 15.28125 35.5 C 14.334866 34.289932 13.874363 32.69019 14 31.1875 C 14.065351 30.40512 14.315444 29.610163 14.6875 28.9375 C 15.059556 28.264838 15.561234 27.69328 16.15625 27.28125 C 17.084947 26.618068 18.281314 26.374979 19.34375 26.5 C 19.924054 26.568815 20.469516 26.765612 20.9375 27.0625 C 21.405484 27.359388 21.782427 27.750487 22.03125 28.1875 C 22.406991 28.817187 22.497446 29.571036 22.375 30.21875 C 22.303144 30.590041 22.127901 30.929015 21.90625 31.1875 C 21.6846 31.445984 21.40163 31.638841 21.125 31.71875 C 20.959359 31.783544 20.775605 31.759245 20.59375 31.71875 C 20.411895 31.678255 20.241735 31.607265 20.09375 31.53125 C 19.927545 31.427705 19.820129 31.358066 19.78125 31.25 C 19.707771 31.132518 19.747138 30.976571 19.78125 30.875 C 19.815362 30.773428 19.833819 30.708818 19.8125 30.6875 C 19.791183 30.666183 19.722288 30.664809 19.625 30.75 C 19.576356 30.792595 19.54561 30.848309 19.5 30.9375 C 19.454391 31.026691 19.397911 31.158243 19.40625 31.3125 C 19.438733 31.541629 19.59633 31.800095 19.8125 31.96875 C 19.968173 32.1089 20.156443 32.246868 20.40625 32.34375 C 20.656057 32.440632 20.971294 32.485243 21.3125 32.4375 C 21.733598 32.362491 22.154796 32.170461 22.53125 31.84375 C 22.907703 31.517039 23.237226 31.060374 23.40625 30.5 C 23.672663 29.643703 23.654715 28.594238 23.1875 27.59375 C 22.875517 26.946231 22.425789 26.350579 21.8125 25.875 C 21.199211 25.399421 20.427529 25.036518 19.59375 24.875 C 18.154657 24.592559 16.514907 24.823549 15.09375 25.6875 C 14.220056 26.229961 13.456728 26.949114 12.875 27.84375 C 12.293271 28.738386 11.908655 29.793105 11.75 30.90625 C 11.454882 32.963962 11.924367 35.195374 13.1875 37.03125 C 14.747324 39.255693 17.297615 40.750667 20.0625 41.0625 C 22.791164 41.370971 25.596757 40.60863 27.8125 38.96875 C 29.201682 37.921582 30.30411 36.594062 31.09375 35.125 C 31.88339 33.655938 32.350591 32.039455 32.5 30.4375 C 32.668306 28.632026 32.463054 26.882066 31.96875 25.28125 C 31.474446 23.680434 30.718228 22.237 29.78125 21.03125 C 28.586307 19.518299 27.176542 18.415608 25.84375 17.625 C 24.510958 16.834392 23.23558 16.353055 22.15625 16.0625 C 21.07692 15.771945 20.194934 15.645394 19.59375 15.59375 C 18.992566 15.542106 18.6875 15.5625 18.6875 15.5625 z "
     id="path3031" />
  <path
     style="color:#000000;fill:#eaedee;fill-opacity:1;fill-rule:nonzero;stroke:none;stroke-width:1;marker:none;visibility:visible;display:inline;overflow:visible;enable-background:accumulate"
     d="M 17.0625 7.28125 C 14.617152 7.344561 12.24747 7.7837219 10.0625 8.5 C 7.1492065 9.4550375 4.5434499 10.903988 2.375 12.65625 C 1.5015287 13.37297 0.72472293 14.132927 0 14.90625 L 0 29.9375 C 0.044840998 29.589712 0.11547511 29.201369 0.1875 28.8125 C 0.47560032 27.257022 1.0103756 25.387653 2 23.40625 C 2.9896251 21.424846 4.4460751 19.34154 6.5 17.59375 C 8.0205057 16.272104 9.8996597 15.124104 12.0625 14.34375 C 14.22534 13.563396 16.66887 13.13268 19.15625 13.25 C 21.306569 13.350175 23.515052 13.907144 25.59375 14.875 C 27.672447 15.842856 29.597326 17.22567 31.09375 19.03125 C 33.514352 21.889132 34.877 25.909908 34.65625 29.84375 C 34.443176 33.673446 32.61179 37.552739 29.625 39.9375 C 27.167196 41.943394 23.838555 42.936902 20.6875 42.71875 C 17.463509 42.496529 14.346957 40.88628 12.5 38.4375 C 10.950092 36.428735 10.251517 33.796306 10.46875 31.375 C 10.584331 30.087433 10.97862 28.838934 11.59375 27.75 C 12.208879 26.661066 13.033209 25.724406 14 25.0625 C 15.535346 23.984231 17.471367 23.597198 19.1875 23.8125 C 20.139838 23.932914 21.0561 24.25883 21.8125 24.75 C 22.5689 25.24117 23.163625 25.881468 23.5625 26.59375 C 24.16922 27.63589 24.303353 28.892125 24.09375 29.9375 C 23.968514 30.548415 23.649662 31.115095 23.28125 31.53125 C 22.912838 31.947405 22.483616 32.218371 22.03125 32.34375 C 21.749122 32.444553 21.420254 32.41424 21.125 32.34375 C 20.829747 32.27326 20.578336 32.158368 20.34375 32.03125 C 20.074926 31.859932 19.873197 31.683903 19.8125 31.5 C 19.702068 31.292851 19.783004 31.065104 19.84375 30.90625 C 19.904496 30.747396 19.966691 30.654192 19.9375 30.625 C 19.908305 30.595805 19.803423 30.613695 19.65625 30.75 C 19.582665 30.818166 19.505968 30.923772 19.4375 31.0625 C 19.369034 31.201229 19.296137 31.390359 19.3125 31.625 C 19.364656 31.97434 19.600135 32.333543 19.9375 32.59375 C 20.182697 32.808174 20.48699 33.008974 20.875 33.15625 C 21.263011 33.303526 21.727859 33.39027 22.25 33.3125 C 22.898753 33.193395 23.577144 32.884245 24.15625 32.375 C 24.735356 31.865755 25.211266 31.150603 25.46875 30.28125 C 25.872952 28.952581 25.888525 27.328565 25.15625 25.78125 C 24.671394 24.7845 23.92249 23.858438 22.96875 23.125 C 22.015011 22.391561 20.829286 21.839885 19.53125 21.59375 C 17.306564 21.167156 14.767772 21.522301 12.5625 22.875 C 11.221543 23.712862 10.054927 24.860858 9.15625 26.25 C 8.257572 27.639142 7.6482983 29.292588 7.40625 31.03125 C 6.9632846 34.196502 7.6732636 37.638468 9.65625 40.5 C 10.850552 42.195092 12.424117 43.620271 14.25 44.6875 C 16.075882 45.754728 18.168477 46.448177 20.34375 46.6875 C 24.493289 47.144866 28.847786 46.040505 32.34375 43.4375 C 36.483686 40.305354 39.122389 35.398909 39.59375 30.21875 C 40.068106 25.00225 38.490137 19.694339 35.3125 15.625 C 33.322279 13.116229 30.813278 11.169924 28.09375 9.78125 C 25.374221 8.3925757 22.449763 7.5700359 19.53125 7.34375 C 18.701348 7.27958 17.877616 7.2601463 17.0625 7.28125 z "
     id="path3942" />
  <path
     style="font-size:medium;font-style:normal;font-variant:normal;font-weight:normal;font-stretch:normal;text-indent:0;text-align:start;text-decoration:none;line-height:normal;letter-spacing:normal;word-spacing:normal;text-transform:none;direction:ltr;block-progression:tb;writing-mode:lr-tb;text-anchor:start;baseline-shift:baseline;color:#000000;fill:#eaedee;fill-opacity:1;fill-rule:nonzero;stroke:none;stroke-width:1;marker:none;visibility:visible;display:inline;overflow:visible;enable-background:accumulate;font-family:Sans;-inkscape-font-specification:Sans"
     d="m 4.7965498,35.147554 c -0.7245503,-0.724549 -1.8974948,-0.74125 -2.6220444,-0.0167 -0.7245496,0.724551 -0.7245496,1.914196 8e-7,2.638746 0.673692,0.673692 1.7415957,0.712723 2.4717352,0.133607 l 4.9601724,4.960172 -0.450925,0.450925 -0.267214,0.267215 0.267215,0.267214 1.6867912,1.686794 0.267215,0.267214 0.267214,-0.267215 0.450925,-0.450924 12.609193,12.609192 c -0.578459,0.730126 -0.539843,1.798286 0.133608,2.471736 0.724549,0.724551 1.914195,0.724551 2.638745,0 0.72455,-0.724549 0.707849,-1.897493 -0.0167,-2.622043 -0.587672,-0.587673 -1.471996,-0.695501 -2.171119,-0.334019 L 12.362066,44.550172 12.81299,44.099247 13.080205,43.832032 12.81299,43.564818 11.126197,41.878025 10.858982,41.610811 10.591768,41.878025 10.140843,42.32895 5.1305691,37.318674 c 0.3638008,-0.699699 0.254678,-1.582422 -0.3340186,-2.171119 z m -0.5344295,0.53443 c 0.3449474,0.344947 0.413969,0.843377 0.2171118,1.252569 l -0.400822,0.400822 0.033399,0.03341 c -0.4332479,0.299558 -1.0162276,0.253041 -1.4028769,-0.133607 -0.4357224,-0.435723 -0.4357239,-1.134163 0,-1.569886 0.4357232,-0.435724 1.1174622,-0.419023 1.5531853,0.0167 z M 26.65805,58.077915 c 0.435724,0.435723 0.452425,1.117462 0.0167,1.553186 -0.435724,0.435723 -1.134163,0.435722 -1.569886,0 -0.435723,-0.435723 -0.435724,-1.134163 0,-1.569887 0.435723,-0.435723 1.117462,-0.419022 1.553184,0.0167 z m -15.799068,-15.398246 1.152364,1.152363 -0.90185,0.901849 -1.1523625,-1.152363 0.9018485,-0.901849 z"
     id="path4178"
     inkscape:connector-curvature="0" />
  <path
     d="M 34,64 60,33 c -2.328567,2.776369 -4.36141,3 -11,3 H 37 v 15 c 0,6.644068 0.04437,9.370179 -3,13 z"
     id="path4278"
     style="fill:#1d78d5;fill-rule:nonzero;fill-opacity:1" />
</svg>

<svg xmlns="http://www.w3.org/2000/svg" viewBox="0 0 64 64"><path d="m4 0h60v62h-60z" fill="#2370be"/><path d="m60 2v31l-24.313 29h28.313v-25-31l-4-4" fill="#002d5c" fill-opacity=".177"/><g color="#000"><path d="m0 2h60v31l-26 31h-34z" fill="#3290e9"/><path d="m18.688 15.563l-.031 4.406c0 0 .205.01.625.031.42.021 1.038.071 1.813.25.775.179 1.711.476 2.688 1 .977.524 2.01 1.282 2.875 2.313.68.795 1.256 1.775 1.656 2.906.4 1.131.598 2.393.531 3.688-.058 1.122-.33 2.295-.844 3.375-.513 1.08-1.242 2.084-2.188 2.844-1.462 1.207-3.526 1.877-5.5 1.75-1.943-.124-3.877-1.108-5.03-2.625-.946-1.21-1.407-2.81-1.281-4.313.065-.782.315-1.577.688-2.25.372-.673.874-1.244 1.469-1.656.929-.663 2.125-.906 3.188-.781.58.069 1.126.266 1.594.563.468.297.845.688 1.094 1.125.376.63.466 1.384.344 2.031-.072.371-.247.71-.469.969-.222.258-.505.451-.781.531-.166.065-.349.04-.531 0-.182-.04-.352-.111-.5-.188-.166-.104-.274-.173-.313-.281-.073-.117-.034-.273 0-.375.034-.102.053-.166.031-.188-.021-.021-.09-.023-.188.063-.049.043-.079.098-.125.188-.046.089-.102.221-.094.375.032.229.19.488.406.656.156.14.344.278.594.375.25.097.565.141.906.094.421-.075.842-.267 1.219-.594.376-.327.706-.783.875-1.344.266-.856.248-1.906-.219-2.906-.312-.648-.762-1.243-1.375-1.719-.613-.476-1.385-.838-2.219-1-1.439-.282-3.079-.051-4.5.813-.874.542-1.637 1.262-2.219 2.156-.582.895-.966 1.949-1.125 3.063-.295 2.058.174 4.289 1.438 6.125 1.56 2.224 4.11 3.719 6.875 4.03 2.729.308 5.534-.454 7.75-2.094 1.389-1.047 2.492-2.375 3.281-3.844.79-1.469 1.257-3.086 1.406-4.688.168-1.805-.037-3.555-.531-5.156-.494-1.601-1.251-3.044-2.188-4.25-1.195-1.513-2.605-2.616-3.938-3.406-1.333-.791-2.608-1.272-3.688-1.563-1.079-.291-1.961-.417-2.563-.469-.601-.052-.906-.031-.906-.031" fill="#003863" fill-opacity=".654"/><g fill="#eaedee"><path d="m17.06 7.281c-2.445.063-4.815.502-7 1.219-2.913.955-5.519 2.404-7.688 4.156-.873.717-1.65 1.477-2.375 2.25v15.03c.045-.348.115-.736.188-1.125.288-1.555.823-3.425 1.813-5.406.99-1.981 2.446-4.065 4.5-5.813 1.521-1.322 3.4-2.47 5.563-3.25 2.163-.78 4.606-1.211 7.094-1.094 2.15.1 4.359.657 6.438 1.625 2.079.968 4 2.351 5.5 4.156 2.421 2.858 3.783 6.879 3.563 10.813-.213 3.83-2.044 7.709-5.03 10.09-2.458 2.01-5.786 2.999-8.938 2.781-3.224-.222-6.341-1.832-8.188-4.281-1.55-2.01-2.248-4.641-2.031-7.06.116-1.288.51-2.536 1.125-3.625.615-1.089 1.439-2.026 2.406-2.688 1.535-1.078 3.471-1.465 5.188-1.25.952.12 1.869.446 2.625.938.756.491 1.351 1.131 1.75 1.844.607 1.042.741 2.298.531 3.344-.125.611-.444 1.178-.813 1.594-.368.416-.798.687-1.25.813-.282.101-.611.07-.906 0-.295-.07-.547-.185-.781-.313-.269-.171-.471-.347-.531-.531-.11-.207-.029-.435.031-.594.061-.159.123-.252.094-.281-.029-.029-.134-.011-.281.125-.074.068-.15.174-.219.313-.068.139-.141.328-.125.563.052.349.288.709.625.969.245.214.549.415.938.563.388.147.853.234 1.375.156.649-.119 1.327-.428 1.906-.938.579-.509 1.055-1.224 1.313-2.094.404-1.329.42-2.953-.313-4.5-.485-.997-1.234-1.923-2.188-2.656-.954-.733-2.139-1.285-3.438-1.531-2.225-.427-4.763-.071-6.969 1.281-1.341.838-2.508 1.986-3.406 3.375-.899 1.389-1.508 3.043-1.75 4.781-.443 3.165.267 6.607 2.25 9.469 1.194 1.695 2.768 3.12 4.594 4.188 1.826 1.067 3.918 1.761 6.094 2 4.15.457 8.504-.647 12-3.25 4.14-3.132 6.779-8.04 7.25-13.219.474-5.217-1.104-10.524-4.281-14.594-1.99-2.509-4.499-4.455-7.219-5.844-2.72-1.389-5.644-2.211-8.563-2.438-.83-.064-1.654-.084-2.469-.063"/><path d="m4.797 35.15c-.725-.725-1.897-.741-2.622-.017-.725.725-.725 1.914 0 2.639.674.674 1.742.713 2.472.134l4.96 4.96-.451.451-.267.267.267.267 1.687 1.687.267.267.267-.267.451-.451 12.609 12.609c-.578.73-.54 1.798.134 2.472.725.725 1.914.725 2.639 0 .725-.725.708-1.897-.017-2.622-.588-.588-1.472-.696-2.171-.334l-12.659-12.659.451-.451.267-.267-.267-.267-1.687-1.687-.267-.267-.267.267-.451.451-5.01-5.01c.364-.7.255-1.582-.334-2.171m-.534.534c.345.345.414.843.217 1.253l-.401.401.033.033c-.433.3-1.016.253-1.403-.134-.436-.436-.436-1.134 0-1.57.436-.436 1.117-.419 1.553.017m22.396 22.396c.436.436.452 1.117.017 1.553-.436.436-1.134.436-1.57 0-.436-.436-.436-1.134 0-1.57.436-.436 1.117-.419 1.553.017m-15.799-15.398l1.152 1.152-.902.902-1.152-1.152.902-.902"/></g></g><path d="m34 64l26-31c-2.329 2.776-4.361 3-11 3h-12v15c0 6.644.044 9.37-3 13" fill="#1d78d5"/></svg>
